packages/ui-icons/src/System/16/Price_16.svg

<svg viewBox="0 0 20 20" xmlns="http://www.w3.org/2000/svg">
    <path fill-rule="evenodd" clip-rule="evenodd" d="M10 18C14.4183 18 18 14.4183 18 10C18 5.58172 14.4183 2 10 2C5.58172 2 2 5.58172 2 10C2 14.4183 5.58172 18 10 18ZM7.75 5.75H11C11.7293 5.75 12.4288 6.03973 12.9445 6.55546C13.4603 7.07118 13.75 7.77065 13.75 8.5C13.75 9.22935 13.4603 9.92882 12.9445 10.4445C12.4288 10.9603 11.7293 11.25 11 11.25H9.25V12H12.25V13.5H9.25V15.25H7.75V13.5H6.75V12H7.75V11.25H6.75V9.75H7.75V5.75ZM11 7.25H9.25V9.75H11C11.3315 9.75 11.6495 9.6183 11.8839 9.38388C12.1183 9.14946 12.25 8.83152 12.25 8.5C12.25 8.16848 12.1183 7.85054 11.8839 7.61612C11.6495 7.3817 11.3315 7.25 11 7.25Z"/>
</svg>

<svg viewBox="0 0 20 20" xmlns="http://www.w3.org/2000/svg"><path fill-rule="evenodd" clip-rule="evenodd" d="M10 18a8 8 0 1 0 0-16 8 8 0 0 0 0 16ZM7.75 5.75H11a2.75 2.75 0 0 1 0 5.5H9.25V12h3v1.5h-3v1.75h-1.5V13.5h-1V12h1v-.75h-1v-1.5h1v-4ZM11 7.25H9.25v2.5H11a1.25 1.25 0 0 0 0-2.5Z"/></svg>
